X: 1
T: Carolan's Fancy
R: jig
M: 6/8
L: 1/8
K: Edor
|: EDE G2A | BeB dBd | edB GAB | ABG AGD |
EDE G2A | BeB dBd | edB GAB | AGF G2B :|
|: ~d3 def | fge fdB | ~A3 ABd | egf e2f |
g2e fed | edB {f}~g3 | edB AGA | BGF G3 :|


Tune 1433	Setting 14811

